X:1
T:Title
%%score { ( 1 3 ) | ( 2 4 ) }
L:1/8
Q:1/4=100
M:4/4
K:G
V:1 treble nm="Grand Piano"
V:3 treble 
V:2 bass 
V:4 bass 
V:1
 B2 G2 A2 F2 | G2 B2 D4 | EEF[DF] [DG]2 A2 | B6 z2 | B2 A2 c2 B2 | [Ge]2 dB [DFA]4 | %6
w: D.~B.~Towner * * *||||||
 BBAG F2 [^CE]2 | D6 z2 | DEFG [FA]2 [Fc]2 | B4 G4 | B[FA][EG][^DF] G2 F2 | E6 z2 | DEFG A2 [Fc]2 | %13
w: |||||||
 B4 d4 | ded[EGc] [DGB]2 [CDA]2 | [G,B,DG]6 z2 | B4 z4 | B4 z4 | .B2 .B2 z4 | A4[K:bass] z4 | %20
w: |||||||
 c4 z4 | c4 z4 | .c2 .c2 z4 | B6[K:bass] z2 | B4 z4 | B4 z4 | .B2 .B2 z4 | A4[K:bass] z4 | e4 z4 | %29
w: |||||||||
 d4 z4 | [DFA][DGB][DAc][DAd] [ce]2 [cf]2 | [Bg]6 z2 |] %32
w: |||
V:2
 [G,D]2 [G,B,D]2 [D,CD]2 [D,A,D]2 | [G,B,D]2 [G,D]2 [G,B,]4 | %2
 [D,CD][D,CD][D,CD][C,A,] [B,,G,]2 [D,F,D]2 | [G,D]6 z2 | [G,DG]2 [G,CG]2 [G,EG]2 [G,DG]2 | %5
 [C,C]2 B,,G,, D,4 | [G,DG][G,DG][K:bass][F,CD][G,B,D] [A,D]2 [A,,G,]2 | [D,F,]6 z2 | %8
 [D,F,][D,G,D][D,A,D][D,B,D] [D,C]2 [D,A,]2 | [G,G]4 [G,B,D]4 | %10
 [G,DG][K:bass][D,C][E,B,][B,,B,] [E,B,E]2 [^D,A,B,]2 | [E,G,B,]6 z2 | %12
 [F,A,][G,A,D][A,D][G,B,D] [F,CD]2 [D,A,]2 | [G,G]4 [G,B,G]4 | %14
 [G,B,G][G,CG][G,B,G][K:bass]C, D,2 D,2 | G,,6 z2 | .[G,,G,]2 [G,B,D]2 [G,,G,]2 [G,,G,]2 | %17
 .[G,,G,]2 [G,B,D]2 [G,,G,]2 [G,,G,]2 | [G,,G,]2 [G,,G,]2 [G,,G,]2 [C,C]2 | [D,D]2 F,2 F,2 D,2 | %20
 D,F, A,2 D,2 D,2 | D,F, [A,DF]2 [D,A,D]2 [D,A,D]2 | [D,,D,]2 [D,,D,]2 [D,,D,]2 [D,,D,]2 | %23
 [G,DG]6 z2 | .[G,,G,]2 [G,B,D]2 [G,,G,]2 [G,,G,]2 | .[G,,G,]2 [G,B,D]2 [G,,G,]2 [G,,G,]2 | %26
 [G,,G,]2 [G,,G,]2 [G,,G,]2 [C,C]2 | [D,D]2 F,2 F,2 D,2 | D,F, A,2 [D,D]2 [D,D]2 | %29
 G,-[D,G,] G,2 G,,2 G,,2 | CB,A,F, [D,D]2 [D,D]2 | [G,D]6 z2 |] %32
V:3
 x8 | x8 | x8 | x8 | x8 | z2 [DG]2 z4 | x8 | x8 | x8 | x8 | x8 | x8 | x8 | x8 | x8 | x8 | %16
 [B,DG]-[D,B,DG] G2 [B,DG]2 [B,DG]2 | [B,DG]-[D,B,DG] G2 [B,DG]2 [B,DG]2 | %18
 [DG]-[DGA][DG]-[DGA] [DGB]2 [EGc]2 | F2 [CD]2[K:bass] [A,D]2 [F,D]2 | %20
 [DFA]2 [DFA]2 [DFA]2 [DFA]2 | [DFA]2 A2 F2 F2 | [FA]-[FAB][FA]-[FAB] [FAc]2 [FAd]2 | %23
 z2[K:bass] B,,2 D,2 G,2 | [B,DG]-[D,B,DG] G2 [B,DG]2 [DG]2 | [B,DG]-[D,B,DG] G2 [B,DG]2 [B,DG]2 | %26
 [DG]-[DGA][DG]-[DGA] [DGB]2 [EGc]2 | F2 [CD]2[K:bass] [A,D]2 [F,D]2 | %28
 [DFAc]2 [DFAc]2 [FA]2 [FA]2 | [DGB]2 [DGB]2 [G,B,DG]2 [G,B,DG]2 | x8 | x8 |] %32
V:4
 x8 | x8 | x8 | x8 | x8 | x8 | x2[K:bass] x6 | x8 | x8 | x8 | x[K:bass] x7 | x8 | x8 | x8 | %14
 x3[K:bass] x5 | x8 | x8 | x8 | x8 | x8 | x8 | x8 | x8 | x8 | x8 | x8 | x8 | x8 | x8 | %29
 .G,,2 z2 z4 | x8 | x8 |] %32

